X: 26871
T: Miners Of Wicklow, The
R: jig
M: 6/8
K: Dmajor
AG|:FAA ABc|dcB AGF|GBG E3|FAF D3|
FAA ABc|d[cf][Bd] AFA|1 Bcd ecA|dAG FED|2 Bcd efg|fdd d2||
|:e|fdd fdd|eAA efg|fdd def|gfg efg|
faf gbg|afd cBA|1 Bcd efg|fdd d2:|2 Bcd ecA|dAG F||

